images/quote-before.svg

<svg width="50" height="42" fill="none" xmlns="http://www.w3.org/2000/svg"><path d="M49.6 33.4l-5 6.8c-2 .8-3.9333 1.2-5.8 1.2-1.0667 0-2.2667-.2-3.6-.6-1.2-.5333-2.3333-1.2-3.4-2-1.0667-.9333-2-2.0667-2.8-3.4-.6667-1.3333-1-2.8667-1-4.6 0-2 .2-4.0667.6-6.2.4-2.1333 1.1333-4.4667 2.2-7 1.2-2.5333 2.8-5.2 4.8-8.00001C37.7333 6.8 40.4667 3.73333 43.8.399991h1c.4-.133332.7333-.199997 1-.199997 2.2667 0 3.5333.999996 3.8 2.999996-.1333.53334-.5333 1.33334-1.2 2.40001-.5333 1.06666-1.2 2.13333-2 3.19999-.6667 1.06667-1.3333 2.06671-2 3.00001-.5333.8-.8667 1.2667-1 1.4-1.4667 2.6667-2.4667 5.6667-3 9h1c.8 0 1.6.1333 2.4.4.9333.1333 1.8.6 2.6 1.4.8.8 1.4667 1.9333 2 3.4.6667 1.4667 1.0667 3.4667 1.2 6zm-28 0l-5 6.8c-2 .8-3.9333 1.2-5.8 1.2-1.06666 0-2.26666-.2-3.59999-.6-1.2-.5333-2.33334-1.2-3.40001-2-1.06666-.9333-2-2.0667-2.8-3.4-.666663-1.3333-.99999642-2.8667-.99999642-4.6 0-2 .19999942-4.0667.59999842-6.2C1 22.4667 1.73334 20.1333 2.8 17.6c1.2-2.5333 2.8-5.2 4.80001-8.00001C9.73334 6.8 12.4667 3.73333 15.8.399991h1c.4-.133332.7333-.199997 1-.199997 2.2667 0 3.5333.999996 3.8 2.999996-.1333.53334-.5333 1.33334-1.2 2.40001-.5333 1.06666-1.2 2.13333-2 3.19999-.6667 1.06667-1.3333 2.06671-2 3.00001-.5333.8-.8667 1.2667-1 1.4-1.4667 2.6667-2.4667 5.6667-3 9h1c.8 0 1.6.1333 2.4.4.9333.1333 1.8.6 2.6 1.4.8.8 1.4667 1.9333 2 3.4.6667 1.4667 1.0667 3.4667 1.2 6z" fill="#DBDBDB"/></svg>

<svg width="50" height="42" viewBox="0 0 50 42" fill="none" xmlns="http://www.w3.org/2000/svg">
<path d="M49.6 33.4L44.6 40.2C42.6 41 40.6667 41.4 38.8 41.4C37.7333 41.4 36.5333 41.2 35.2 40.8C34 40.2667 32.8667 39.6 31.8 38.8C30.7333 37.8667 29.8 36.7333 29 35.4C28.3333 34.0667 28 32.5333 28 30.8C28 28.8 28.2 26.7333 28.6 24.6C29 22.4667 29.7333 20.1333 30.8 17.6C32 15.0667 33.6 12.4 35.6 9.59999C37.7333 6.8 40.4667 3.73333 43.8 0.399991C44.2 0.399991 44.5333 0.399991 44.8 0.399991C45.2 0.266659 45.5333 0.199994 45.8 0.199994C48.0667 0.199994 49.3333 1.19999 49.6 3.19999C49.4667 3.73333 49.0667 4.53333 48.4 5.6C47.8667 6.66666 47.2 7.73333 46.4 8.79999C45.7333 9.86666 45.0667 10.8667 44.4 11.8C43.8667 12.6 43.5333 13.0667 43.4 13.2C41.9333 15.8667 40.9333 18.8667 40.4 22.2H41.4C42.2 22.2 43 22.3333 43.8 22.6C44.7333 22.7333 45.6 23.2 46.4 24C47.2 24.8 47.8667 25.9333 48.4 27.4C49.0667 28.8667 49.4667 30.8667 49.6 33.4ZM21.6 33.4L16.6 40.2C14.6 41 12.6667 41.4 10.8 41.4C9.73334 41.4 8.53334 41.2 7.20001 40.8C6.00001 40.2667 4.86667 39.6 3.8 38.8C2.73334 37.8667 1.8 36.7333 1 35.4C0.333337 34.0667 3.57628e-06 32.5333 3.57628e-06 30.8C3.57628e-06 28.8 0.200003 26.7333 0.600002 24.6C1 22.4667 1.73334 20.1333 2.8 17.6C4 15.0667 5.6 12.4 7.60001 9.59999C9.73334 6.8 12.4667 3.73333 15.8 0.399991C16.2 0.399991 16.5333 0.399991 16.8 0.399991C17.2 0.266659 17.5333 0.199994 17.8 0.199994C20.0667 0.199994 21.3333 1.19999 21.6 3.19999C21.4667 3.73333 21.0667 4.53333 20.4 5.6C19.8667 6.66666 19.2 7.73333 18.4 8.79999C17.7333 9.86666 17.0667 10.8667 16.4 11.8C15.8667 12.6 15.5333 13.0667 15.4 13.2C13.9333 15.8667 12.9333 18.8667 12.4 22.2H13.4C14.2 22.2 15 22.3333 15.8 22.6C16.7333 22.7333 17.6 23.2 18.4 24C19.2 24.8 19.8667 25.9333 20.4 27.4C21.0667 28.8667 21.4667 30.8667 21.6 33.4Z" fill="#DBDBDB"/>
</svg>
